src/assets/bold/lm-scan-bold.svg

<svg width="24" height="24" viewBox="0 0 24 24" fill="none" xmlns="http://www.w3.org/2000/svg" fill="currentColor">
<path d="M6 5C5.73478 5 5.48043 5.10536 5.29289 5.29289C5.10536 5.48043 5 5.73478 5 6V7C5 7.55228 4.55228 8 4 8C3.44772 8 3 7.55228 3 7V6C3 5.20435 3.31607 4.44129 3.87868 3.87868C4.44129 3.31607 5.20435 3 6 3H8C8.55228 3 9 3.44772 9 4C9 4.55228 8.55228 5 8 5H6ZM15 4C15 3.44772 15.4477 3 16 3H18C18.7956 3 19.5587 3.31607 20.1213 3.87868C20.6839 4.44129 21 5.20435 21 6V7C21 7.55228 20.5523 8 20 8C19.4477 8 19 7.55228 19 7V6C19 5.73478 18.8946 5.48043 18.7071 5.29289C18.5196 5.10536 18.2652 5 18 5H16C15.4477 5 15 4.55228 15 4ZM4 12C4 11.4477 4.44772 11 5 11H19C19.5523 11 20 11.4477 20 12C20 12.5523 19.5523 13 19 13H5C4.44772 13 4 12.5523 4 12ZM4 16C4.55228 16 5 16.4477 5 17V18C5 18.2652 5.10536 18.5196 5.29289 18.7071C5.48043 18.8946 5.73478 19 6 19H8C8.55228 19 9 19.4477 9 20C9 20.5523 8.55228 21 8 21H6C5.20435 21 4.44129 20.6839 3.87868 20.1213C3.31607 19.5587 3 18.7956 3 18V17C3 16.4477 3.44772 16 4 16ZM20 16C20.5523 16 21 16.4477 21 17V18C21 18.7957 20.6839 19.5587 20.1213 20.1213C19.5587 20.6839 18.7957 21 18 21H16C15.4477 21 15 20.5523 15 20C15 19.4477 15.4477 19 16 19H18C18.2652 19 18.5196 18.8946 18.7071 18.7071C18.8946 18.5196 19 18.2652 19 18V17C19 16.4477 19.4477 16 20 16Z" fill="black"/>
</svg>

<svg xmlns="http://www.w3.org/2000/svg" width="24" height="24" fill="currentColor" viewBox="0 0 24 24">
  <path d="M6 5a1 1 0 0 0-1 1v1a1 1 0 0 1-2 0V6a3 3 0 0 1 3-3h2a1 1 0 0 1 0 2H6Zm9-1a1 1 0 0 1 1-1h2a3 3 0 0 1 3 3v1a1 1 0 1 1-2 0V6a1 1 0 0 0-1-1h-2a1 1 0 0 1-1-1ZM4 12a1 1 0 0 1 1-1h14a1 1 0 1 1 0 2H5a1 1 0 0 1-1-1Zm0 4a1 1 0 0 1 1 1v1a1 1 0 0 0 1 1h2a1 1 0 1 1 0 2H6a3 3 0 0 1-3-3v-1a1 1 0 0 1 1-1Zm16 0a1 1 0 0 1 1 1v1a3 3 0 0 1-3 3h-2a1 1 0 1 1 0-2h2a1 1 0 0 0 1-1v-1a1 1 0 0 1 1-1Z"/>
</svg>
